X:6422
T:Tam Lin Reel
O:england
N:please mail errors to: simon.wascher@chello.at
M:2/4
L:1/16
K:Gm
D2GD BDGD|E2GE BEGE|F2AF BAGF|Gfdc BAGF|
D2GD BDGD|E2GE BEGE|F2AF BAGF|BAGFG4:|
|:g^fgd BAG2|g^fgd BAG2|Af-f A f-f Af|f2ga ^a=agf|
g^fgd BAG2|g^fgd BAGD|E2GE BEGE|BAGFG4:|


